img/order-group-desk.svg

<svg width="918" height="62" viewBox="0 0 918 62" fill="none" xmlns="http://www.w3.org/2000/svg">
<line x1="47" y1="30.5" x2="712" y2="30.4999" stroke="white" stroke-width="3"/>
<g filter="url(#filter0_d)">
<circle cx="31" cy="31" r="25" transform="rotate(-90 31 31)" fill="white"/>
</g>
<g filter="url(#filter1_d)">
<circle cx="248" cy="31" r="25" transform="rotate(-90 248 31)" fill="white"/>
</g>
<g filter="url(#filter2_d)">
<circle cx="495" cy="31" r="25" transform="rotate(-90 495 31)" fill="white"/>
</g>
<path d="M27.2731 29.475L26.3856 26.4875C27.519 25.9375 28.6523 25.3917 29.7856 24.85C30.919 24.3 32.0523 23.75 33.1856 23.2L33.0481 26.6375C32.0815 27.1125 31.119 27.5875 30.1606 28.0625C29.2023 28.5292 28.2398 29 27.2731 29.475ZM31.1981 40.5C31.1981 39.6083 31.1981 38.7458 31.1981 37.9125C31.1981 37.0708 31.1981 36.1333 31.1981 35.1V30.05C31.1981 29.1917 31.1981 28.3375 31.1981 27.4875C31.1981 26.6292 31.1981 25.7667 31.1981 24.9L33.1856 23.2L35.0481 23.3125C35.0481 24.2875 35.0481 25.275 35.0481 26.275C35.0481 27.2667 35.0481 28.275 35.0481 29.3V35.1C35.0481 36.1333 35.0481 37.0708 35.0481 37.9125C35.0481 38.7458 35.0481 39.6083 35.0481 40.5H31.1981Z" fill="black"/>
<path d="M242.458 40V37.4C242.917 37.0083 243.371 36.6208 243.821 36.2375C244.279 35.8542 244.737 35.4708 245.196 35.0875C246.262 34.1875 247.179 33.3458 247.946 32.5625C248.712 31.7792 249.3 31.025 249.708 30.3C250.117 29.575 250.321 28.8458 250.321 28.1125C250.321 27.3125 250.096 26.7125 249.646 26.3125C249.196 25.9042 248.517 25.7 247.608 25.7C247.217 25.7 246.812 25.7458 246.396 25.8375C245.987 25.9208 245.575 26.0458 245.158 26.2125C244.742 26.3708 244.325 26.5583 243.908 26.775C243.5 26.9917 243.1 27.2333 242.708 27.5L242.371 23.825C242.754 23.6417 243.175 23.4708 243.633 23.3125C244.1 23.1458 244.592 23 245.108 22.875C245.633 22.7417 246.171 22.6375 246.721 22.5625C247.279 22.4875 247.837 22.45 248.396 22.45C249.662 22.45 250.733 22.6583 251.608 23.075C252.492 23.4833 253.158 24.075 253.608 24.85C254.067 25.6167 254.296 26.5375 254.296 27.6125C254.296 28.4958 254.112 29.375 253.746 30.25C253.379 31.1167 252.821 31.9875 252.071 32.8625C251.329 33.7375 250.387 34.6208 249.246 35.5125L246.783 37.45L246.308 36.7H249.408C250.258 36.7 251.108 36.7 251.958 36.7C252.808 36.7 253.654 36.7 254.496 36.7V40H242.458Z" fill="black"/>
<path d="M495.212 40.325C494.612 40.325 494.025 40.2917 493.45 40.225C492.883 40.1583 492.337 40.0667 491.812 39.95C491.295 39.825 490.812 39.6833 490.362 39.525C489.92 39.3667 489.52 39.2 489.162 39.025L489.45 35.525C489.9 35.7583 490.354 35.9708 490.812 36.1625C491.27 36.3542 491.725 36.5208 492.175 36.6625C492.633 36.7958 493.083 36.9 493.525 36.975C493.975 37.05 494.404 37.0875 494.812 37.0875C495.895 37.0875 496.67 36.8875 497.137 36.4875C497.604 36.0792 497.837 35.5583 497.837 34.925C497.837 34.1833 497.537 33.625 496.937 33.25C496.337 32.8667 495.479 32.675 494.362 32.675C493.995 32.675 493.637 32.675 493.287 32.675C492.945 32.675 492.6 32.675 492.25 32.675V29.85C492.558 29.85 492.866 29.85 493.175 29.85C493.491 29.85 493.808 29.85 494.125 29.85C494.883 29.85 495.5 29.7625 495.975 29.5875C496.45 29.4042 496.795 29.15 497.012 28.825C497.237 28.5 497.35 28.1208 497.35 27.6875C497.35 27.0208 497.104 26.525 496.612 26.2C496.129 25.8667 495.487 25.7 494.687 25.7C494.295 25.7 493.891 25.7417 493.475 25.825C493.066 25.9083 492.654 26.025 492.237 26.175C491.82 26.3167 491.408 26.4875 491 26.6875C490.591 26.8875 490.195 27.1125 489.812 27.3625L489.462 23.8125C489.837 23.6292 490.25 23.4542 490.7 23.2875C491.15 23.1208 491.629 22.975 492.137 22.85C492.645 22.725 493.17 22.625 493.712 22.55C494.254 22.475 494.795 22.4375 495.337 22.4375C496.604 22.4375 497.683 22.6208 498.575 22.9875C499.466 23.3458 500.145 23.8583 500.612 24.525C501.087 25.1833 501.325 25.9625 501.325 26.8625C501.325 27.5792 501.183 28.2 500.9 28.725C500.616 29.25 500.233 29.6792 499.75 30.0125C499.275 30.3375 498.745 30.5625 498.162 30.6875V30.9875C498.604 31.0708 499.041 31.2167 499.475 31.425C499.908 31.625 500.3 31.9 500.65 32.25C501 32.6 501.279 33.025 501.487 33.525C501.695 34.025 501.8 34.6125 501.8 35.2875C501.8 36.2542 501.562 37.1208 501.087 37.8875C500.62 38.6458 499.9 39.2417 498.925 39.675C497.958 40.1083 496.72 40.325 495.212 40.325Z" fill="black"/>
<line x1="709" y1="30.5" x2="917.01" y2="30.5" stroke="white" stroke-width="3" stroke-dasharray="18 18"/>
<g filter="url(#filter3_d)">
<circle cx="705" cy="31" r="25" transform="rotate(-90 705 31)" fill="white"/>
</g>
<path d="M705.196 39.5C705.196 38.6667 705.196 37.8708 705.196 37.1125C705.196 36.3458 705.196 35.4667 705.196 34.475L705.409 33.925V29.1C705.409 28.2417 705.409 27.3875 705.409 26.5375C705.409 25.6792 705.409 24.8208 705.409 23.9625L708.096 22.9C707.655 23.5333 707.226 24.15 706.809 24.75C706.392 25.3417 705.971 25.9333 705.546 26.525L702.796 30.4375C702.421 30.9625 702.051 31.4833 701.684 32C701.326 32.5167 700.963 33.0417 700.596 33.575L700.471 32.7375H706.159L706.559 32.5875C707.051 32.5875 707.596 32.5875 708.196 32.5875C708.796 32.5875 709.388 32.5875 709.971 32.5875C710.555 32.5875 711.071 32.5875 711.521 32.5875V35.8875C711.071 35.8875 710.555 35.8875 709.971 35.8875C709.388 35.8875 708.796 35.8875 708.196 35.8875C707.596 35.8875 707.051 35.8875 706.559 35.8875H697.446V33.3125C697.771 32.8458 698.134 32.3292 698.534 31.7625C698.942 31.1875 699.351 30.6125 699.759 30.0375C700.176 29.4542 700.559 28.9167 700.909 28.425L702.971 25.4875C703.355 24.9542 703.734 24.425 704.109 23.9C704.484 23.3667 704.859 22.8333 705.234 22.3H709.034C709.034 23.3333 709.034 24.35 709.034 25.35C709.034 26.3417 709.034 27.3333 709.034 28.325V34.475C709.034 35.4667 709.034 36.3458 709.034 37.1125C709.034 37.8708 709.034 38.6667 709.034 39.5H705.196Z" fill="black"/>
<defs>
<filter id="filter0_d" x="0" y="0" width="62" height="62" filterUnits="userSpaceOnUse" color-interpolation-filters="sRGB">
<feFlood flood-opacity="0" result="BackgroundImageFix"/>
<feColorMatrix in="SourceAlpha" type="matrix" values="0 0 0 0 0 0 0 0 0 0 0 0 0 0 0 0 0 0 127 0" result="hardAlpha"/>
<feMorphology radius="1" operator="dilate" in="SourceAlpha" result="effect1_dropShadow"/>
<feOffset/>
<feGaussianBlur stdDeviation="2.5"/>
<feComposite in2="hardAlpha" operator="out"/>
<feColorMatrix type="matrix" values="0 0 0 0 0 0 0 0 0 0 0 0 0 0 0 0 0 0 0.59 0"/>
<feBlend mode="normal" in2="BackgroundImageFix" result="effect1_dropShadow"/>
<feBlend mode="normal" in="SourceGraphic" in2="effect1_dropShadow" result="shape"/>
</filter>
<filter id="filter1_d" x="217" y="0" width="62" height="62" filterUnits="userSpaceOnUse" color-interpolation-filters="sRGB">
<feFlood flood-opacity="0" result="BackgroundImageFix"/>
<feColorMatrix in="SourceAlpha" type="matrix" values="0 0 0 0 0 0 0 0 0 0 0 0 0 0 0 0 0 0 127 0" result="hardAlpha"/>
<feMorphology radius="1" operator="dilate" in="SourceAlpha" result="effect1_dropShadow"/>
<feOffset/>
<feGaussianBlur stdDeviation="2.5"/>
<feComposite in2="hardAlpha" operator="out"/>
<feColorMatrix type="matrix" values="0 0 0 0 0 0 0 0 0 0 0 0 0 0 0 0 0 0 0.59 0"/>
<feBlend mode="normal" in2="BackgroundImageFix" result="effect1_dropShadow"/>
<feBlend mode="normal" in="SourceGraphic" in2="effect1_dropShadow" result="shape"/>
</filter>
<filter id="filter2_d" x="464" y="0" width="62" height="62" filterUnits="userSpaceOnUse" color-interpolation-filters="sRGB">
<feFlood flood-opacity="0" result="BackgroundImageFix"/>
<feColorMatrix in="SourceAlpha" type="matrix" values="0 0 0 0 0 0 0 0 0 0 0 0 0 0 0 0 0 0 127 0" result="hardAlpha"/>
<feMorphology radius="1" operator="dilate" in="SourceAlpha" result="effect1_dropShadow"/>
<feOffset/>
<feGaussianBlur stdDeviation="2.5"/>
<feComposite in2="hardAlpha" operator="out"/>
<feColorMatrix type="matrix" values="0 0 0 0 0 0 0 0 0 0 0 0 0 0 0 0 0 0 0.59 0"/>
<feBlend mode="normal" in2="BackgroundImageFix" result="effect1_dropShadow"/>
<feBlend mode="normal" in="SourceGraphic" in2="effect1_dropShadow" result="shape"/>
</filter>
<filter id="filter3_d" x="674" y="0" width="62" height="62" filterUnits="userSpaceOnUse" color-interpolation-filters="sRGB">
<feFlood flood-opacity="0" result="BackgroundImageFix"/>
<feColorMatrix in="SourceAlpha" type="matrix" values="0 0 0 0 0 0 0 0 0 0 0 0 0 0 0 0 0 0 127 0" result="hardAlpha"/>
<feMorphology radius="1" operator="dilate" in="SourceAlpha" result="effect1_dropShadow"/>
<feOffset/>
<feGaussianBlur stdDeviation="2.5"/>
<feComposite in2="hardAlpha" operator="out"/>
<feColorMatrix type="matrix" values="0 0 0 0 0 0 0 0 0 0 0 0 0 0 0 0 0 0 0.59 0"/>
<feBlend mode="normal" in2="BackgroundImageFix" result="effect1_dropShadow"/>
<feBlend mode="normal" in="SourceGraphic" in2="effect1_dropShadow" result="shape"/>
</filter>
</defs>
</svg>

<svg xmlns="http://www.w3.org/2000/svg" fill="none" viewBox="0 0 918 62"><path stroke="#fff" stroke-width="3" d="M47 30.5h665"/><g filter="url(#filter0_d)"><circle cx="31" cy="31" r="25" fill="#fff" transform="rotate(-90 31 31)"/></g><g filter="url(#filter1_d)"><circle cx="248" cy="31" r="25" fill="#fff" transform="rotate(-90 248 31)"/></g><g filter="url(#filter2_d)"><circle cx="495" cy="31" r="25" fill="#fff" transform="rotate(-90 495 31)"/></g><path fill="#000" d="M27.273 29.475l-.887-2.988c1.133-.55 2.266-1.095 3.4-1.637l3.4-1.65-.138 3.438c-.967.474-1.929.95-2.887 1.424a914.9 914.9 0 0 0-2.888 1.413zM31.198 40.5v-2.587V30.05v-2.563V24.9l1.988-1.7 1.862.113V40.5h-3.85zM242.458 40v-2.6l1.363-1.163 1.375-1.15a39.84 39.84 0 0 0 2.75-2.525c.766-.783 1.354-1.537 1.762-2.262.409-.725.613-1.454.613-2.188 0-.8-.225-1.4-.675-1.8-.45-.408-1.129-.612-2.038-.612a5.63 5.63 0 0 0-1.212.137 7.209 7.209 0 0 0-1.238.375 11.86 11.86 0 0 0-1.25.563c-.408.217-.808.458-1.2.725l-.337-3.675c.383-.183.804-.354 1.262-.512a14.64 14.64 0 0 1 1.475-.438 14.526 14.526 0 0 1 1.613-.313 12.557 12.557 0 0 1 1.675-.112c1.266 0 2.337.208 3.212.625.884.408 1.55 1 2 1.775.459.767.688 1.688.688 2.762 0 .884-.184 1.763-.55 2.638-.367.867-.925 1.738-1.675 2.612-.742.875-1.684 1.759-2.825 2.65l-2.463 1.938-.475-.75h8.188V40h-12.038zM495.212 40.325c-.6 0-1.187-.033-1.762-.1a16.35 16.35 0 0 1-1.638-.275c-.517-.125-1-.267-1.45-.425a11.793 11.793 0 0 1-1.2-.5l.288-3.5c.45.233.904.446 1.362.638.458.191.913.358 1.363.5.458.133.908.237 1.35.312.45.075.879.112 1.287.112 1.083 0 1.858-.2 2.325-.6.467-.408.7-.929.7-1.562 0-.742-.3-1.3-.9-1.675-.6-.383-1.458-.575-2.575-.575h-2.112V29.85h1.875c.758 0 1.375-.088 1.85-.263.475-.183.82-.437 1.037-.762a1.95 1.95 0 0 0 .338-1.137c0-.667-.246-1.163-.738-1.488-.483-.333-1.125-.5-1.925-.5-.392 0-.796.042-1.212.125-.409.083-.821.2-1.238.35-.417.142-.829.313-1.237.512-.409.2-.805.425-1.188.675l-.35-3.55a13.518 13.518 0 0 1 2.675-.962 15.454 15.454 0 0 1 1.575-.3 11.835 11.835 0 0 1 1.625-.113c1.267 0 2.346.184 3.238.55.891.359 1.57.871 2.037 1.538.475.658.713 1.438.713 2.338 0 .716-.142 1.337-.425 1.862a3.65 3.65 0 0 1-1.15 1.287 4.427 4.427 0 0 1-1.588.675v.3c.442.084.879.23 1.313.438.433.2.825.475 1.175.825.35.35.629.775.837 1.275.208.5.313 1.087.313 1.763 0 .966-.238 1.833-.713 2.6-.467.758-1.187 1.354-2.162 1.787-.967.433-2.205.65-3.713.65z"/><path stroke="#fff" stroke-dasharray="18 18" stroke-width="3" d="M709 30.5h208.01"/><g filter="url(#filter3_d)"><circle cx="705" cy="31" r="25" fill="#fff" transform="rotate(-90 705 31)"/></g><path fill="#000" d="M705.196 39.5v-2.388-2.637l.213-.55V29.1v-2.563-2.575l2.687-1.062-1.287 1.85c-.417.592-.838 1.183-1.263 1.775l-2.75 3.913c-.375.524-.745 1.045-1.112 1.562l-1.088 1.575-.125-.838h5.688l.4-.15h4.962v3.3h-14.075v-2.575c.325-.466.688-.983 1.088-1.55l1.225-1.724 1.15-1.613 2.062-2.938c.384-.533.763-1.062 1.138-1.587l1.125-1.6h3.8V39.5h-3.838z"/><defs><filter id="filter0_d" width="62" height="62" x="0" y="0" color-interpolation-filters="sRGB" filterUnits="userSpaceOnUse"><feFlood flood-opacity="0" result="BackgroundImageFix"/><feColorMatrix in="SourceAlpha" result="hardAlpha" values="0 0 0 0 0 0 0 0 0 0 0 0 0 0 0 0 0 0 127 0"/><feMorphology in="SourceAlpha" operator="dilate" radius="1" result="effect1_dropShadow"/><feOffset/><feGaussianBlur stdDeviation="2.5"/><feComposite in2="hardAlpha" operator="out"/><feColorMatrix values="0 0 0 0 0 0 0 0 0 0 0 0 0 0 0 0 0 0 0.59 0"/><feBlend in2="BackgroundImageFix" result="effect1_dropShadow"/><feBlend in="SourceGraphic" in2="effect1_dropShadow" result="shape"/></filter><filter id="filter1_d" width="62" height="62" x="217" y="0" color-interpolation-filters="sRGB" filterUnits="userSpaceOnUse"><feFlood flood-opacity="0" result="BackgroundImageFix"/><feColorMatrix in="SourceAlpha" result="hardAlpha" values="0 0 0 0 0 0 0 0 0 0 0 0 0 0 0 0 0 0 127 0"/><feMorphology in="SourceAlpha" operator="dilate" radius="1" result="effect1_dropShadow"/><feOffset/><feGaussianBlur stdDeviation="2.5"/><feComposite in2="hardAlpha" operator="out"/><feColorMatrix values="0 0 0 0 0 0 0 0 0 0 0 0 0 0 0 0 0 0 0.59 0"/><feBlend in2="BackgroundImageFix" result="effect1_dropShadow"/><feBlend in="SourceGraphic" in2="effect1_dropShadow" result="shape"/></filter><filter id="filter2_d" width="62" height="62" x="464" y="0" color-interpolation-filters="sRGB" filterUnits="userSpaceOnUse"><feFlood flood-opacity="0" result="BackgroundImageFix"/><feColorMatrix in="SourceAlpha" result="hardAlpha" values="0 0 0 0 0 0 0 0 0 0 0 0 0 0 0 0 0 0 127 0"/><feMorphology in="SourceAlpha" operator="dilate" radius="1" result="effect1_dropShadow"/><feOffset/><feGaussianBlur stdDeviation="2.5"/><feComposite in2="hardAlpha" operator="out"/><feColorMatrix values="0 0 0 0 0 0 0 0 0 0 0 0 0 0 0 0 0 0 0.59 0"/><feBlend in2="BackgroundImageFix" result="effect1_dropShadow"/><feBlend in="SourceGraphic" in2="effect1_dropShadow" result="shape"/></filter><filter id="filter3_d" width="62" height="62" x="674" y="0" color-interpolation-filters="sRGB" filterUnits="userSpaceOnUse"><feFlood flood-opacity="0" result="BackgroundImageFix"/><feColorMatrix in="SourceAlpha" result="hardAlpha" values="0 0 0 0 0 0 0 0 0 0 0 0 0 0 0 0 0 0 127 0"/><feMorphology in="SourceAlpha" operator="dilate" radius="1" result="effect1_dropShadow"/><feOffset/><feGaussianBlur stdDeviation="2.5"/><feComposite in2="hardAlpha" operator="out"/><feColorMatrix values="0 0 0 0 0 0 0 0 0 0 0 0 0 0 0 0 0 0 0.59 0"/><feBlend in2="BackgroundImageFix" result="effect1_dropShadow"/><feBlend in="SourceGraphic" in2="effect1_dropShadow" result="shape"/></filter></defs></svg>
